calendar-week-begin-outline.svg

<svg  viewBox="0 0 24 24" fill="currentColor"><path  d="M19 3C20.11 3 21 3.89 21 5V19C21 20.11 20.11 21 19 21H5C3.89 21 3 20.1 3 19V5C3 3.89 3.9 3 5 3H6V1H8V3H16V1H18V3H19M19 19V9H5V19H19M19 7V5H5V7H19M7 11H9V17H7V11"/></svg>

<svg fill="currentColor" viewBox="0 0 24 24"><path d="M19 3c1.11 0 2 .89 2 2v14c0 1.11-.89 2-2 2H5a2 2 0 0 1-2-2V5a2 2 0 0 1 2-2h1V1h2v2h8V1h2v2zm0 16V9H5v10zm0-12V5H5v2zM7 11h2v6H7z"/></svg>
